X:2145
T:C'red ta shoh ta jannoo shiu
T:(Carval: Er Baase as Beaynid.)
C:Henry Clague, Ballanorris
N:Carval (carol): Er baase as beaynid 
N:Said to be an old Manx song adapted to English words by John Wesley.
C:Traditional
O:Isle of Man
Z:Clague collection
B:Kiaull Vannin #145 
M:6/8 
L:1/8
Q:100 
K:G 
A2A G2B|c2c B3|c2A e2c|B3 A3|A2A G2B|c2c B3|c2A e2c|B3 A3| 
e2e f2e|d2d e3|A2A B2A|G2F E3|A2A GAB|c2c B3|cBA edc|B3 A3|| 

